X:131
T:Yorkshire Volunteers. THO5.131
M:2/4
L:1/8
B:Thompson's Complete Collection of 200 Favourite Dances Vol.5
F:https://www.libraryofdance.org/manuals/1780c-Thompson-Compleat-5.pdf
Z:vmp. Peter Dunk 2024
U:w=!wedge!
Q:1/4=110
K:G
(GD)(DG)|(GD)(DG)|(Ac)(cB)|(BA)wA2|
(GD)(DG)|(GD)(DG)|(cA)wFwA|G2G,2:|
|:(dg)(gf)|(fe)we2|dedc|(BA)wA2|
(dg)(gf)|(fe)we2|dcBA|G2G,2:|
|:G/G/G/G/ G/G/G/G/|G/G/G/G/ G/G/G/G/|G/G/g/g/ f/f/e/e/|e2e2|
G/G/G/G/ G/G/G/G/|G/G/G/G/ G/G/G/G/|d/d/c/c/ B/B/A/A/|[G2G,2][G2G,2]:|
W:
W:1st Lady lead her Partner into the 3rd Couples place ./.
W:the 3rd Couple lead into the 1st Couples place & round into thier own place ./:
W:1st Couple turn quit round with the right hands & cast off :/.
W:turn again with the left hands :/:
W:hands six round ./:.
W:back again :./:

